X:1
T:BWV 0797
T:Sinfonia 11
T:Johann Sebastian Bach
%%score { ( 1 3 ) | ( 2 4 ) }
L:1/8
Q:1/4=96
M:3/8
K:Bb
V:1 treble nm="Harp"
V:3 treble 
V:2 bass 
V:4 bass 
V:1
"^Andante" z/ d/B/G/g | f3 | e3 | d3 | c2 d | B>Be | A>Bc | B3 | %8
 c/4=B/4c/4B/4c/4B/4c/4B/4 c/4B/4A/4B/4 | c>de- | e/d/=B/G/f | e3- | e>dc- | c/f/d/B/b | d>ec | %15
 B3 | b3- | b/g/e/c/b | a3- | a/f/d/B/b | g3- | g/=e/^c/A/f- | f/d/B/G/=e- | e/G/B/=e/F/d/ | %24
 d/^c/=e/g/d/f/- | f/=e/g/b/d/a/- | a/^c/=e/g/=B/f/- | f/A/^c/=e/^G/d/ | ^c/=e/c/A/g | f3 | _e3 | %31
 d3- | d/^c/=e/g/b | a>=ef | d>=e^c | d2 f | f3- | f>de | e3- | e>cd- | d/b/g/e/c'- | c'/a/f/d/b- | %42
 b/g/e/c/a | ^f2 g | e>dc | d>B=A/c/ | B/d/c/e/d/a/ | B3- | B/G/E/C/B | A3- | A/F/D/B,/_A | G3- | %52
 G/B/A/c/^F/A/- | A/A/G/B/=E/G/- | G/G/^F/A/c- | c/B/A/c/e- | e/d/c/B/A/G/ | c/B/A/G/^F/=E/ | %58
 D/^F/A/c/G/B/- | B/A/c/e/G/d/- | d/^F/A/c/=E/B/- | B/D/^F/A/^C/G/ | ^F2- F/F/ | A/c/ e2- | %64
 e/d/B/G/g | f3 | e3 | d3 | c2 d | B>Be | B>cA | G3 |] %72
V:2
 G,2 E, | D,2 B, | G,2 A, | B,/D/B,/G,/G- | G>=E^F | G2 C | D2 D, | G,/D,/B,,/G,,/G, | =F,3 | %9
 E,/G,/E,/C,/C- | C2 =B, | C3- | C/C/A,/F,/E | D>GE | F2 F, | B,/F,/D,/B,,/A, | G,3 | CB,C | F,3 | %19
 B,A,B, | =E,3 | F,3 | G,A,B, | G,3- | G,3- | G,3- | G,3- | G,3 | A,>G,F,/=E,/ | D,2 B,, | %30
 G,,2 A,, | B,,/D,/B,,/G,,/G, | =E,>=ED | ^C2 D | B,G,A, | F,/D,,/F,,/A,,/D,/=C,/ | %36
 =B,,/G,,/B,,/D,/G,/F,/ | E,/C,/E,/G,/C/B,/ | A,/F,/A,/C/F/E/ |[K:treble] D/B,/D/F/B/A/ | G3 | F3 | %42
 E3 | D3 | C3 | B,>DC | D>CD |[K:bass] G,/D,/B,,/G,,/F, | E,3- | E,/C,/A,,/F,,/F, | D,3- | %51
 D,/B,,/G,,/E,,/G,,/B,,/ | C,3 | B,,3 | A,,>^F,,G,, | ^F,,>A,,C, | D,, D,2- | D,3- | D,3- | D,3- | %60
 D,3- | D,3 | z/ D,/- D,2- | D,>CB,/A,/ | G,2 E, | D,2 B, | G,2 A, | B,/D/B,/G,/G- | G>=E^F | %69
 G2 C | D2 D, | !fermata!G,,3 |] %72
V:3
 x3 | z/ A/F/D/d- | d>Bc- | c>AB | A3- | A/^F/ G2- | G2 ^F | G3 | z/ D/=B,/G,/G- | G3 | F2 D | %11
 z/ G/E/C/_B | A3 | F3/2B3/2- | B2 A | B3 | z/[I:staff +1] D/B,/G,/F | E3- | E/E/C/A,/F | D3- | %20
 D/D/B,/G,/=E | ^CA,D- | D^CD | D/4^C/4D/4C/4D/4C/4D/4C/4 D | =E2 F | G2 F | =E2 D | %27
 D/4^C/4D/4C/4D/4C/4D/4C/4 =B, | A,3- | A,/[I:staff -1]A/F/D/d- | d>Bc- | c>AB | G2 F- | %33
 F/=E/[I:staff +1]^C/A,/D |[I:staff -1] F>G=E | D2 z | z z/ d/=B | G>=Bc | c3- | c>AB- | %40
 B>[I:staff +1]Be- | e>Ad- | d>Gc- | c/^F/A/c/B- | B/E/G/B/_A- | A/^F/ G2 | G2 ^F | %47
[I:staff -1] G3 | CB,C | F3 | B,[I:staff +1]A,B, |[I:staff -1] E3- | E3 | D3 | C2 z | z3 | %56
 z[I:staff +1] D,=E, | ^F,2 G, | x3 | C2 B, | A,2 G, | ^F,2 =E, | x/ D,/^F,/A,/D- | %63
 D3/2[I:staff -1] z/ z | x3 | z/ A/F/D/d- | d>Bc- | c>AB | A3- | A/^F/ G2- | G2 ^F | !fermata!G3 |] %72
V:4
 x3 | x3 | x3 | x3 | x3 | x3 | x3 | x3 | x3 | x3 | x3 | x3 | x3 | x3 | x3 | x3 | x3 | x3 | x3 | %19
 x3 | x3 | x3 | x3 | x3 | x3 | x3 | x3 | x3 | x3 | x3 | x3 | x3 | x3 | x3 | x3 | x3 | x3 | x3 | %38
 x3 |[K:treble] x3 | x3 | x3 | x3 | x3 | x3 | x3 | x3 |[K:bass] x3 | x3 | x3 | x3 | x3 | x3 | x3 | %54
 x3 | x3 | x3 | x3 | A,2 B, | x3 | x3 | x3 | x3 | x3 | x3 | x3 | x3 | x3 | x3 | x3 | x3 | x3 |] %72

